img/svg/icon-font/key.svg

<svg width="22" height="22" viewBox="0 0 22 22" fill="none" xmlns="http://www.w3.org/2000/svg">
<g clip-path="url(#clip0)">
<path d="M15.6406 7.39358C16.3999 7.39358 17.0155 6.77798 17.0155 6.01859C17.0155 5.2592 16.3999 4.64359 15.6406 4.64359C14.8812 4.64359 14.2656 5.2592 14.2656 6.01859C14.2656 6.77798 14.8812 7.39358 15.6406 7.39358Z" fill="#4C51CB"/>
<path d="M21.7626 7.13034C21.3037 5.96185 20.4622 4.27589 19.0593 2.87958C17.6613 1.48809 15.9932 0.670654 14.84 0.229882C13.574 -0.253987 12.1354 0.0510039 11.175 1.00684L7.80034 4.36569C6.79999 5.36132 6.51167 6.89332 7.08286 8.17787C7.25997 8.57627 7.4526 8.96595 7.65842 9.34244L0.25171 16.7491C0.0905348 16.9103 0 17.1289 0 17.3568V21.1381C0 21.6127 0.384741 21.9974 0.859372 21.9974H4.64061C5.11524 21.9974 5.49998 21.6127 5.49998 21.1381V19.5912L7.04685 19.5911C7.52148 19.5911 7.90622 19.2064 7.90622 18.7318V17.1849H9.45309C9.92772 17.1849 10.3125 16.8002 10.3125 16.3256C10.3125 15.8509 9.92772 15.4662 9.45309 15.4662H7.04685C6.57222 15.4662 6.18748 15.8509 6.18748 16.3256V17.8724L4.64061 17.8724C4.16598 17.8724 3.78124 18.2572 3.78124 18.7318V20.2787H1.71874V17.7128L9.33944 10.0921C9.61942 9.81213 9.67188 9.37716 9.46654 9.03866C9.16872 8.54778 8.89514 8.02322 8.65344 7.47954C8.36989 6.84184 8.51435 6.08005 9.01292 5.58381L12.3875 2.225C12.8693 1.74551 13.5911 1.59259 14.2265 1.83536C15.2243 2.21675 16.6624 2.91877 17.8469 4.09774C19.0386 5.28385 19.7641 6.74319 20.1629 7.75854C20.4117 8.39224 20.2605 9.11218 19.7777 9.59274L16.3623 12.9922C15.8649 13.4871 15.1226 13.6318 14.471 13.3608C13.9336 13.1373 13.4131 12.8718 12.9241 12.5716C12.5196 12.3233 11.9904 12.45 11.7422 12.8545C11.4939 13.259 11.6205 13.7882 12.025 14.0365C12.5901 14.3833 13.191 14.6899 13.8109 14.9477C15.106 15.4865 16.5834 15.197 17.5747 14.2104L20.9901 10.811C21.9588 9.84681 22.2621 8.40208 21.7626 7.13034Z" fill="#4C51CB"/>
</g>
<defs>
<clipPath id="clip0">
<rect width="22" height="22" fill="white"/>
</clipPath>
</defs>
</svg>

<svg width="22" height="22" fill="none" xmlns="http://www.w3.org/2000/svg"><g clip-path="url(#clip0)" fill="#4C51CB"><path d="M15.64 7.394a1.375 1.375 0 100-2.75 1.375 1.375 0 000 2.75z"/><path d="M21.763 7.13c-.46-1.168-1.3-2.854-2.704-4.25C17.661 1.488 15.993.67 14.84.23a3.455 3.455 0 00-3.665.777L7.8 4.366a3.439 3.439 0 00-.717 3.812c.177.398.37.788.575 1.164L.252 16.75a.86.86 0 00-.252.608v3.781c0 .475.385.86.86.86h3.78a.86.86 0 00.86-.86v-1.547h1.547a.86.86 0 00.86-.86v-1.546h1.546a.86.86 0 100-1.719H7.047a.86.86 0 00-.86.86v1.546H4.641a.86.86 0 00-.86.86v1.547H1.72v-2.566l7.62-7.62a.86.86 0 00.128-1.054 13.908 13.908 0 01-.814-1.56 1.71 1.71 0 01.36-1.895l3.374-3.359a1.734 1.734 0 011.84-.39c.997.382 2.435 1.084 3.62 2.263 1.192 1.186 1.917 2.645 2.316 3.66a1.707 1.707 0 01-.385 1.835l-3.416 3.4a1.73 1.73 0 01-1.891.368 11.147 11.147 0 01-1.547-.79.86.86 0 10-.899 1.466 12.88 12.88 0 001.786.91 3.444 3.444 0 003.764-.737l3.415-3.399a3.424 3.424 0 00.773-3.68z"/></g><defs><clipPath id="clip0"><path fill="#fff" d="M0 0h22v22H0z"/></clipPath></defs></svg>
